icons/2_Variations/VRChat bg.var.svg

<svg width="1024" height="1024" fill="none" xmlns="http://www.w3.org/2000/svg"><g clip-path="url(#a)"><path d="M512 1024c282.77 0 512-229.23 512-512S794.77 0 512 0 0 229.23 0 512s229.23 512 512 512Z" fill="#728DBE"/><path d="M246.1 418.9h531.8c8.4 0 16 3.4 21.5 8.9s8.9 13.1 8.9 21.5v125.4c0 8.4-3.4 16-8.9 21.5-4.8 4.8-11.1 8-18.1 8.7v46.3c0 10.9-8.8 19-19.5 15.1-3.8-1.4-7.9-4.6-11.9-9.9L709.6 605H246.1c-8.4 0-16-3.4-21.5-8.9s-8.9-13.1-8.9-21.5V449.3c0-8.4 3.4-16 8.9-21.5s13.1-8.9 21.5-8.9Zm523.8 174.8h8c5.2 0 10-2.1 13.5-5.6 3.5-3.5 5.6-8.2 5.6-13.5V449.3c0-5.2-2.1-10-5.6-13.5-3.5-3.5-8.2-5.6-13.5-5.6H246.1c-5.2 0-10 2.1-13.5 5.6-3.5 3.5-5.6 8.2-5.6 13.5v125.4c0 5.2 2.1 10 5.6 13.5 3.5 3.5 8.2 5.6 13.5 5.6h469.4c15.8 19.8 31.1 40 46.9 59.8 2.5 3.3 7.7 3.9 7.6-2.5v-57.4h-.1Zm-132.3-67.1h23.9l-12-42.2-11.9 42.2Zm110.8-74.2H460.6c-10.8 0-19.6 8.8-19.6 19.6v79.7c0 10.8 8.8 19.6 19.6 19.6h287.8c10.8 0 19.6-8.8 19.6-19.6V472c0-10.7-8.8-19.6-19.6-19.6Zm-270.3 91.4c2.5 2.6 6.2 3.9 10.9 3.9 3.1 0 5.6-.5 7.4-1.5 1.8-1 3.2-2.2 4.1-3.7.9-1.5 1.5-3.1 1.9-4.7.3-1.7.5-3.3.6-4.7.2-2.1 1.1-3.6 2.8-4.4 1.7-.8 3.7-1.2 6.1-1.2 3.1 0 5.4.6 6.9 1.8 1.5 1.2 2.2 3.5 2.2 7 0 4.1-.8 7.9-2.4 11.3-1.6 3.4-3.9 6.3-6.8 8.6s-6.4 4.1-10.5 5.4c-4 1.3-8.4 1.9-13.2 1.9-4.3 0-8.4-.6-12.2-1.7-3.9-1.1-7.2-3-10.1-5.4-2.9-2.5-5.2-5.7-6.8-9.7-1.7-4-2.5-8.9-2.5-14.7v-38.4c0-5.8.8-10.7 2.5-14.7s4-7.2 6.9-9.7c2.9-2.5 6.3-4.3 10.1-5.4 3.9-1.1 7.9-1.7 12.2-1.7 4.8 0 9.2.6 13.2 1.9 4 1.2 7.5 3 10.4 5.2 2.9 2.2 5.1 5 6.7 8.3 1.6 3.3 2.4 6.9 2.4 10.8 0 3.6-.7 5.9-2.2 7.1-1.5 1.1-3.7 1.7-6.7 1.7-2.6 0-4.7-.4-6.3-1.2-1.7-.8-2.5-2.3-2.6-4.4-.1-1.1-.3-2.4-.6-3.9s-.9-3-1.9-4.5c-1-1.5-2.4-2.7-4.2-3.7-1.8-1-4.4-1.5-7.7-1.5-4.7 0-8.3 1.3-10.7 3.9-2.5 2.6-3.7 6.6-3.7 12v38.4c0 5.1 1.3 9.1 3.8 11.6Zm122.7 13.1c0 1.8-.9 3.2-2.8 4.2s-3.9 1.4-6.1 1.4c-2.3 0-4.4-.5-6.2-1.4-1.8-1-2.8-2.4-2.8-4.2v-39.5h-31v39.5c0 1.8-.9 3.2-2.8 4.2s-3.9 1.4-6.1 1.4c-2.3 0-4.4-.5-6.2-1.4-1.8-1-2.8-2.4-2.8-4.2v-89.4c0-1.9.9-3.3 2.8-4.2 1.8-.9 3.9-1.3 6.2-1.3 2.2 0 4.2.4 6.1 1.3 1.9.9 2.8 2.3 2.8 4.2v35.9h31v-35.9c0-1.9.9-3.3 2.8-4.2 1.8-.9 3.9-1.3 6.2-1.3 2.2 0 4.2.4 6.1 1.3 1.9.9 2.8 2.3 2.8 4.2v89.4Zm86 1.2c-.7.9-1.7 1.7-2.8 2.3-1.1.7-2.3 1.2-3.6 1.6-1.3.4-2.6.6-3.8.6-1.6 0-2.9-.3-3.9-.8-1.1-.6-1.8-1.5-2.1-2.8l-5.2-18.3h-31.5l-5.2 18.3c-.4 1.3-1.1 2.2-2.1 2.8-1.1.5-2.4.8-3.9.8-1.2 0-2.5-.2-3.8-.6-1.3-.4-2.5-.9-3.6-1.5s-2-1.4-2.8-2.3c-.7-.9-1.1-1.9-1.1-3 0-.2.1-.6.3-1.4l26.6-86.5c.6-2.1 2.1-3.6 4.3-4.6 2.2-1 4.6-1.4 7.2-1.4 2.7 0 5.1.5 7.3 1.4 2.2 1 3.6 2.5 4.3 4.6l26.6 86.5c.2.7.3 1.2.3 1.4-.4 1-.7 2-1.5 2.9Zm65-82.5c-1 1.7-2.4 2.5-4.2 2.5h-20.1v78.8c0 1.8-.9 3.2-2.8 4.2s-3.9 1.4-6.1 1.4c-2.3 0-4.4-.5-6.2-1.4-1.8-1-2.8-2.4-2.8-4.2v-78.8h-20.2c-1.8 0-3.2-.8-4.2-2.4-1-1.6-1.4-3.5-1.4-5.7 0-1.9.5-3.7 1.4-5.4.9-1.7 2.3-2.5 4.3-2.5h58.2c1.9 0 3.3.8 4.3 2.5.9 1.7 1.4 3.5 1.4 5.4-.2 2.1-.7 3.9-1.6 5.6Zm-495.2-4.8 26.6 86.5c.7 2.1 2.2 3.6 4.3 4.6 2.2 1 4.6 1.4 7.2 1.4 2.7 0 5.1-.5 7.3-1.4 2.2-1 3.6-2.5 4.3-4.6l26.4-86.5c.2-.7.3-1.2.3-1.4 0-1.1-.4-2.1-1.1-3-.7-.9-1.7-1.7-2.8-2.3-1.1-.7-2.3-1.2-3.6-1.6-1.3-.4-2.6-.5-3.8-.5-1.6 0-2.9.3-3.9.8-1.1.5-1.8 1.5-2.1 2.8l-20.9 74.6-21-74.6c-.4-1.3-1.1-2.2-2.1-2.8-1.1-.6-2.4-.8-3.9-.8-1.2 0-2.5.2-3.8.5-1.3.4-2.5.9-3.6 1.5s-2 1.4-2.8 2.3c-.7.9-1.1 1.9-1.1 3-.2.3-.1.7.1 1.5Zm86.9-3.3c0-1.5.5-2.8 1.6-3.9s2.5-1.7 4.2-1.7h27.2c4.5 0 8.7.5 12.7 1.4 3.9 1 7.4 2.5 10.4 4.7s5.3 5.1 7 8.8c1.7 3.7 2.5 8.3 2.5 13.8 0 7.9-1.7 14.1-5.2 18.5-3.4 4.4-7.7 7.5-12.9 9l18 33.4c.3.4.5.8.5 1.2.1.4.1.8.1 1 0 1.1-.3 2.2-1 3.4-.7 1.1-1.6 2.2-2.6 3-1.1.9-2.2 1.6-3.6 2.1-1.3.6-2.6.8-3.9.8-1.3 0-2.5-.4-3.5-1.1-1.1-.7-1.9-1.8-2.7-3.2l-19.5-38h-11.6v35.9c0 1.8-.9 3.2-2.8 4.2-1.8 1-3.9 1.4-6.2 1.4-2.2 0-4.2-.5-6.1-1.4-1.9-1-2.8-2.4-2.8-4.2v-89.1h.2Zm17.9 10.2V507h15.1c4.5 0 8.1-1.1 10.7-3.2 2.7-2.2 4-5.9 4-11.3s-1.3-9.2-4-11.4c-2.7-2.2-6.2-3.3-10.7-3.3h-15.1v-.1Z" fill="#fff"/></g><defs><clipPath id="a"><path fill="#fff" d="M0 0h1024v1024H0z"/></clipPath></defs></svg>

<svg width="1024" height="1024" viewBox="0 0 1024 1024" fill="none" xmlns="http://www.w3.org/2000/svg">
<g clip-path="url(#clip0_3_320)">
<path d="M512 1024C794.77 1024 1024 794.77 1024 512C1024 229.23 794.77 0 512 0C229.23 0 0 229.23 0 512C0 794.77 229.23 1024 512 1024Z" fill="#728DBE"/>
<path d="M246.1 418.9H777.9C786.3 418.9 793.9 422.3 799.4 427.8C804.9 433.3 808.3 440.9 808.3 449.3V574.7C808.3 583.1 804.9 590.7 799.4 596.2C794.6 601 788.3 604.2 781.3 604.9V651.2C781.3 662.1 772.5 670.2 761.8 666.3C758 664.9 753.9 661.7 749.9 656.4L709.6 605H246.1C237.7 605 230.1 601.6 224.6 596.1C219.1 590.6 215.7 583 215.7 574.6V449.3C215.7 440.9 219.1 433.3 224.6 427.8C230.1 422.3 237.7 418.9 246.1 418.9ZM769.9 593.7H777.9C783.1 593.7 787.9 591.6 791.4 588.1C794.9 584.6 797 579.9 797 574.6V449.3C797 444.1 794.9 439.3 791.4 435.8C787.9 432.3 783.2 430.2 777.9 430.2H246.1C240.9 430.2 236.1 432.3 232.6 435.8C229.1 439.3 227 444 227 449.3V574.7C227 579.9 229.1 584.7 232.6 588.2C236.1 591.7 240.8 593.8 246.1 593.8H715.5C731.3 613.6 746.6 633.8 762.4 653.6C764.9 656.9 770.1 657.5 770 651.1V593.7H769.9ZM637.6 526.6H661.5L649.5 484.4L637.6 526.6ZM748.4 452.4H460.6C449.8 452.4 441 461.2 441 472V551.7C441 562.5 449.8 571.3 460.6 571.3H748.4C759.2 571.3 768 562.5 768 551.7V472C768 461.3 759.2 452.4 748.4 452.4ZM478.1 543.8C480.6 546.4 484.3 547.7 489 547.7C492.1 547.7 494.6 547.2 496.4 546.2C498.2 545.2 499.6 544 500.5 542.5C501.4 541 502 539.4 502.4 537.8C502.7 536.1 502.9 534.5 503 533.1C503.2 531 504.1 529.5 505.8 528.7C507.5 527.9 509.5 527.5 511.9 527.5C515 527.5 517.3 528.1 518.8 529.3C520.3 530.5 521 532.8 521 536.3C521 540.4 520.2 544.2 518.6 547.6C517 551 514.7 553.9 511.8 556.2C508.9 558.5 505.4 560.3 501.3 561.6C497.3 562.9 492.9 563.5 488.1 563.5C483.8 563.5 479.7 562.9 475.9 561.8C472 560.7 468.7 558.8 465.8 556.4C462.9 553.9 460.6 550.7 459 546.7C457.3 542.7 456.5 537.8 456.5 532V493.6C456.5 487.8 457.3 482.9 459 478.9C460.7 474.9 463 471.7 465.9 469.2C468.8 466.7 472.2 464.9 476 463.8C479.9 462.7 483.9 462.1 488.2 462.1C493 462.1 497.4 462.7 501.4 464C505.4 465.2 508.9 467 511.8 469.2C514.7 471.4 516.9 474.2 518.5 477.5C520.1 480.8 520.9 484.4 520.9 488.3C520.9 491.9 520.2 494.2 518.7 495.4C517.2 496.5 515 497.1 512 497.1C509.4 497.1 507.3 496.7 505.7 495.9C504 495.1 503.2 493.6 503.1 491.5C503 490.4 502.8 489.1 502.5 487.6C502.2 486.1 501.6 484.6 500.6 483.1C499.6 481.6 498.2 480.4 496.4 479.4C494.6 478.4 492 477.9 488.7 477.9C484 477.9 480.4 479.2 478 481.8C475.5 484.4 474.3 488.4 474.3 493.8V532.2C474.3 537.3 475.6 541.3 478.1 543.8ZM600.8 556.9C600.8 558.7 599.9 560.1 598 561.1C596.1 562.1 594.1 562.5 591.9 562.5C589.6 562.5 587.5 562 585.7 561.1C583.9 560.1 582.9 558.7 582.9 556.9V517.4H551.9V556.9C551.9 558.7 551 560.1 549.1 561.1C547.2 562.1 545.2 562.5 543 562.5C540.7 562.5 538.6 562 536.8 561.1C535 560.1 534 558.7 534 556.9V467.5C534 465.6 534.9 464.2 536.8 463.3C538.6 462.4 540.7 462 543 462C545.2 462 547.2 462.4 549.1 463.3C551 464.2 551.9 465.6 551.9 467.5V503.4H582.9V467.5C582.9 465.6 583.8 464.2 585.7 463.3C587.5 462.4 589.6 462 591.9 462C594.1 462 596.1 462.4 598 463.3C599.9 464.2 600.8 465.6 600.8 467.5V556.9ZM686.8 558.1C686.1 559 685.1 559.8 684 560.4C682.9 561.1 681.7 561.6 680.4 562C679.1 562.4 677.8 562.6 676.6 562.6C675 562.6 673.7 562.3 672.7 561.8C671.6 561.2 670.9 560.3 670.6 559L665.4 540.7H633.9L628.7 559C628.3 560.3 627.6 561.2 626.6 561.8C625.5 562.3 624.2 562.6 622.7 562.6C621.5 562.6 620.2 562.4 618.9 562C617.6 561.6 616.4 561.1 615.3 560.5C614.2 559.9 613.3 559.1 612.5 558.2C611.8 557.3 611.4 556.3 611.4 555.2C611.4 555 611.5 554.6 611.7 553.8L638.3 467.3C638.9 465.2 640.4 463.7 642.6 462.7C644.8 461.7 647.2 461.3 649.8 461.3C652.5 461.3 654.9 461.8 657.1 462.7C659.3 463.7 660.7 465.2 661.4 467.3L688 553.8C688.2 554.5 688.3 555 688.3 555.2C687.9 556.2 687.6 557.2 686.8 558.1ZM751.8 475.6C750.8 477.3 749.4 478.1 747.6 478.1H727.5V556.9C727.5 558.7 726.6 560.1 724.7 561.1C722.8 562.1 720.8 562.5 718.6 562.5C716.3 562.5 714.2 562 712.4 561.1C710.6 560.1 709.6 558.7 709.6 556.9V478.1H689.4C687.6 478.1 686.2 477.3 685.2 475.7C684.2 474.1 683.8 472.2 683.8 470C683.8 468.1 684.3 466.3 685.2 464.6C686.1 462.9 687.5 462.1 689.5 462.1H747.7C749.6 462.1 751 462.9 752 464.6C752.9 466.3 753.4 468.1 753.4 470C753.2 472.1 752.7 473.9 751.8 475.6ZM256.6 470.8L283.2 557.3C283.9 559.4 285.4 560.9 287.5 561.9C289.7 562.9 292.1 563.3 294.7 563.3C297.4 563.3 299.8 562.8 302 561.9C304.2 560.9 305.6 559.4 306.3 557.3L332.7 470.8C332.9 470.1 333 469.6 333 469.4C333 468.3 332.6 467.3 331.9 466.4C331.2 465.5 330.2 464.7 329.1 464.1C328 463.4 326.8 462.9 325.5 462.5C324.2 462.1 322.9 462 321.7 462C320.1 462 318.8 462.3 317.8 462.8C316.7 463.3 316 464.3 315.7 465.6L294.8 540.2L273.8 465.6C273.4 464.3 272.7 463.4 271.7 462.8C270.6 462.2 269.3 462 267.8 462C266.6 462 265.3 462.2 264 462.5C262.7 462.9 261.5 463.4 260.4 464C259.3 464.6 258.4 465.4 257.6 466.3C256.9 467.2 256.5 468.2 256.5 469.3C256.3 469.6 256.4 470 256.6 470.8ZM343.5 467.5C343.5 466 344 464.7 345.1 463.6C346.2 462.5 347.6 461.9 349.3 461.9H376.5C381 461.9 385.2 462.4 389.2 463.3C393.1 464.3 396.6 465.8 399.6 468C402.6 470.2 404.9 473.1 406.6 476.8C408.3 480.5 409.1 485.1 409.1 490.6C409.1 498.5 407.4 504.7 403.9 509.1C400.5 513.5 396.2 516.6 391 518.1L409 551.5C409.3 551.9 409.5 552.3 409.5 552.7C409.6 553.1 409.6 553.5 409.6 553.7C409.6 554.8 409.3 555.9 408.6 557.1C407.9 558.2 407 559.3 406 560.1C404.9 561 403.8 561.7 402.4 562.2C401.1 562.8 399.8 563 398.5 563C397.2 563 396 562.6 395 561.9C393.9 561.2 393.1 560.1 392.3 558.7L372.8 520.7H361.2V556.6C361.2 558.4 360.3 559.8 358.4 560.8C356.6 561.8 354.5 562.2 352.2 562.2C350 562.2 348 561.7 346.1 560.8C344.2 559.8 343.3 558.4 343.3 556.6V467.5H343.5ZM361.4 477.7V507H376.5C381 507 384.6 505.9 387.2 503.8C389.9 501.6 391.2 497.9 391.2 492.5C391.2 487.1 389.9 483.3 387.2 481.1C384.5 478.9 381 477.8 376.5 477.8H361.4V477.7Z" fill="white"/>
</g>
<defs>
<clipPath id="clip0_3_320">
<rect width="1024" height="1024" fill="white"/>
</clipPath>
</defs>
</svg>
